X: 4833
T: Boys On The Hilltop, The
R: reel
M: 4/4
K: Adorian
eA~A2 ^GAA=G|=FGGF ~G2EG|DAAG A2Bd|eaed (3cBA BG|
=FA~A2 cA~A2|DGG^F ~G2BG|cEGc dB~B2|eBAG =FAAG||
A2 (3B^cd eaed|=cA^GB def=g|~a2gd eaed|^cAGE ~D3z|
^ga=gd eaed|=cA^GB def=g|~a2^ga ~b3g|~a2^ge ~=g2^fd|

